X: 52
T:That tune that goes with Jump at the Sun
M:6/8
L:1/8
S:Eurojam
R:Jig
N:Not the tune's real name obviously, any info welcome!
Z:Steve Mansfield
K:D
dcd GBd | =cBc ABc | dcd GBd | =cBc A3 | dcd GBd | =cBc ABc |
AB=c ed^c | d3-d3 :: [K:G] B2B B2B | A2G FGA |
B2B B2B | cBc ABc | B2B B2B | A2G FGA | c3 cde | A3-A3 :|
<end>
<start>
